packages/tokens/icons/pdfTutorial/size16Px.svg

<svg viewBox="0 0 16 16" fill="none" xmlns="http://www.w3.org/2000/svg" width="1em" height="1em"><path d="M13 14.5L4 14.5C3.17157 14.5 2.5 13.8284 2.5 13L2.5 3C2.5 2.17157 3.17157 1.5 4 1.5L10.2485 1.5C10.6119 1.5 10.9628 1.63188 11.2363 1.87113L13.9878 4.27867C14.3133 4.5635 14.5 4.97499 14.5 5.40754L14.5 13C14.5 13.8284 13.8284 14.5 13 14.5Z" stroke="currentColor"/><path d="M10.5 1.5V3.5C10.5 4.05228 10.9477 4.5 11.5 4.5H14" stroke="currentColor"/><path d="M4.74473 8.02437C4.51532 7.93985 4.5311 7.61024 4.76753 7.54802L8.62275 6.53349C8.70617 6.51154 8.79384 6.51154 8.87725 6.53349L12.7325 7.54802C12.9689 7.61024 12.9847 7.93985 12.7553 8.02437L8.92285 9.43632C8.81128 9.47742 8.68872 9.47742 8.57715 9.43632L4.74473 8.02437Z" stroke="currentColor" stroke-linejoin="round"/><path d="M12.5 7.83594V10.0002" stroke="currentColor" stroke-linecap="round"/><path d="M6.5 9V11C6.5 11.2761 6.72386 11.5 7 11.5H10C10.2761 11.5 10.5 11.2761 10.5 11V9" stroke="currentColor" stroke-linecap="round" stroke-linejoin="round"/></svg>

<svg xmlns="http://www.w3.org/2000/svg" fill="none" viewBox="0 0 16 16" width="1em" height="1em"><path stroke="currentColor" d="M13 14.5H4A1.5 1.5 0 0 1 2.5 13V3A1.5 1.5 0 0 1 4 1.5h6.248a1.5 1.5 0 0 1 .988.371l2.752 2.408a1.5 1.5 0 0 1 .512 1.129V13a1.5 1.5 0 0 1-1.5 1.5Z"/><path stroke="currentColor" d="M10.5 1.5v2a1 1 0 0 0 1 1H14"/><path stroke="currentColor" stroke-linejoin="round" d="M4.745 8.024a.25.25 0 0 1 .023-.476l3.855-1.015a.5.5 0 0 1 .254 0l3.855 1.015a.25.25 0 0 1 .023.476L8.923 9.436a.5.5 0 0 1-.346 0L4.745 8.024Z"/><path stroke="currentColor" stroke-linecap="round" d="M12.5 7.836V10"/><path stroke="currentColor" stroke-linecap="round" stroke-linejoin="round" d="M6.5 9v2a.5.5 0 0 0 .5.5h3a.5.5 0 0 0 .5-.5V9"/></svg>
